**kern	**kern
*part1	*part1
*staff2	*staff1
*I"Piano	*
*clefF4	*clefG2
*k[b-e-a-d-]	*k[b-e-a-d-]
=1	=1
4.BBB- 4.BB-	8dnL
.	8B-
.	8FJ<
=	=
4.FF	8e-L
.	8c
.	8FJ<
=	=
4.FF	8e-L
.	8c
.	8FJ<
=	=
4.FF	8e-L
.	8c
.	8FJ<
=	=
4.BB-	8dnL
.	8B-
.	8FJ<
=	=
4.EEn 4.En	8r
.	8cL 8g
.	8cJ 8g
=	=
4.EE-X 4.E-X	8r
.	8GL 8c 8g
.	8GJ 8c 8g
=	=
4.Dn	8r
.	8B-L 8dn
.	8B-J 8d
=	=
4.BB-	8r
.	8B-L 8dn 8f
.	8B-J 8d 8f
=	=
*-	*-
!!!system-decoration: {(s1,s2)}
!!!RDF**kern: < = below
